MonoIcons/scalable/status/weather-few-clouds-symbolic.svg

<?xml version="1.0" encoding="UTF-8"?>
<svg height="16px" viewBox="0 0 16 16" width="16px" xmlns="http://www.w3.org/2000/svg">
    <path d="m 6.5 1 c -0.277344 0 -0.5 0.222656 -0.5 0.5 v 1 c 0 0.277344 0.222656 0.5 0.5 0.5 h 1 c 0.277344 0 0.5 -0.222656 0.5 -0.5 v -1 c 0 -0.277344 -0.222656 -0.5 -0.5 -0.5 z m -3.742188 1.550781 c -0.128906 0 -0.253906 0.046875 -0.351562 0.148438 l -0.707031 0.707031 c -0.199219 0.195312 -0.199219 0.507812 0 0.707031 l 0.707031 0.707031 c 0.195312 0.195313 0.507812 0.195313 0.707031 0 l 0.707031 -0.707031 c 0.195313 -0.199219 0.195313 -0.511719 0 -0.707031 l -0.707031 -0.707031 c -0.101562 -0.101563 -0.226562 -0.148438 -0.355469 -0.148438 z m 8.484376 0 c -0.128907 -0.003906 -0.253907 0.046875 -0.355469 0.148438 l -0.707031 0.707031 c -0.195313 0.195312 -0.195313 0.507812 0 0.707031 l 0.707031 0.707031 c 0.199219 0.195313 0.511719 0.195313 0.707031 0 l 0.707031 -0.707031 c 0.199219 -0.199219 0.199219 -0.511719 0 -0.707031 l -0.707031 -0.707031 c -0.097656 -0.101563 -0.222656 -0.148438 -0.351562 -0.148438 z m -4.253907 1.457031 c -2.195312 0 -4 1.804688 -4 4 c 0 1.894532 1.347657 3.492188 3.128907 3.894532 c 0 -0.003906 0 -0.007813 0.003906 -0.011719 c 0.476562 -2.085937 2.136718 -3.003906 4.042968 -2.808594 c 0.191407 0.046875 0.371094 0.117188 0.546876 0.195313 c 0.015624 0.003906 0.03125 0.007812 0.042968 0.015625 c 0.140625 -0.40625 0.234375 -0.835938 0.234375 -1.289063 c 0 -2.191406 -1.804687 -4 -4 -4 z m -6.488281 2.992188 c -0.277344 0 -0.5 0.222656 -0.5 0.5 v 1 c 0 0.277344 0.222656 0.5 0.5 0.5 h 1 c 0.277344 0 0.5 -0.222656 0.5 -0.5 v -1 c 0 -0.277344 -0.222656 -0.5 -0.5 -0.5 z m 12 0 c -0.277344 0 -0.5 0.222656 -0.5 0.5 v 1 c 0 0.277344 0.222656 0.5 0.5 0.5 h 1 c 0.277344 0 0.5 -0.222656 0.5 -0.5 v -1 c 0 -0.277344 -0.222656 -0.5 -0.5 -0.5 z m -3 3 c -1.378906 0 -2.5 1.121094 -2.5 2.5 c 0 0.21875 0.042969 0.421875 0.09375 0.625 c -0.179688 -0.074219 -0.386719 -0.125 -0.59375 -0.125 c -0.828125 0 -1.5 0.671875 -1.5 1.5 s 0.671875 1.5 1.5 1.5 h 8 c 0.828125 0 1.5 -0.671875 1.5 -1.5 s -0.671875 -1.5 -1.5 -1.5 c 0 -1.105469 -0.894531 -2 -2 -2 c -0.316406 0 -0.609375 0.089844 -0.875 0.21875 c -0.4375 -0.726562 -1.214844 -1.21875 -2.125 -1.21875 z m -6.742188 1.035156 c -0.128906 0 -0.253906 0.046875 -0.351562 0.144532 l -0.707031 0.707031 c -0.199219 0.199219 -0.199219 0.511719 0 0.707031 l 0.707031 0.707031 c 0.195312 0.199219 0.507812 0.199219 0.707031 0 l 0.707031 -0.707031 c 0.195313 -0.195312 0.195313 -0.507812 0 -0.707031 l -0.707031 -0.707031 c -0.101562 -0.097657 -0.226562 -0.144532 -0.355469 -0.144532 z m 0 0" fill="#2e3436"/>
</svg>

<svg width="16" height="16" viewBox="0 0 16 16" fill="none" xmlns="http://www.w3.org/2000/svg">
<g clip-path="url(#clip0_231_1204)">
<path d="M6.5 1C6.22266 1 6 1.22266 6 1.5V2.5C6 2.77734 6.22266 3 6.5 3H7.5C7.77734 3 8 2.77734 8 2.5V1.5C8 1.22266 7.77734 1 7.5 1H6.5ZM2.75781 2.55078C2.62891 2.55078 2.50391 2.59766 2.40625 2.69922L1.69922 3.40625C1.5 3.60156 1.5 3.91406 1.69922 4.11328L2.40625 4.82031C2.60156 5.01563 2.91406 5.01563 3.11328 4.82031L3.82031 4.11328C4.01563 3.91406 4.01563 3.60156 3.82031 3.40625L3.11328 2.69922C3.01172 2.59766 2.88672 2.55078 2.75781 2.55078V2.55078ZM11.2422 2.55078C11.1133 2.54688 10.9883 2.59766 10.8867 2.69922L10.1797 3.40625C9.98438 3.60156 9.98438 3.91406 10.1797 4.11328L10.8867 4.82031C11.0859 5.01563 11.3984 5.01563 11.5938 4.82031L12.3008 4.11328C12.5 3.91406 12.5 3.60156 12.3008 3.40625L11.5938 2.69922C11.4961 2.59766 11.3711 2.55078 11.2422 2.55078V2.55078ZM6.98828 4.00781C4.79297 4.00781 2.98828 5.8125 2.98828 8.00781C2.98828 9.90234 4.33594 11.5 6.11719 11.9023C6.11719 11.8984 6.11719 11.8945 6.12109 11.8906C6.59766 9.80469 8.25781 8.88672 10.1641 9.08203C10.3555 9.12891 10.5352 9.19922 10.7109 9.27734C10.7266 9.28125 10.7422 9.28516 10.7539 9.29297C10.8945 8.88672 10.9883 8.45703 10.9883 8.00391C10.9883 5.8125 9.18359 4.00391 6.98828 4.00391V4.00781ZM0.5 7C0.222656 7 0 7.22266 0 7.5V8.5C0 8.77734 0.222656 9 0.5 9H1.5C1.77734 9 2 8.77734 2 8.5V7.5C2 7.22266 1.77734 7 1.5 7H0.5ZM12.5 7C12.2227 7 12 7.22266 12 7.5V8.5C12 8.77734 12.2227 9 12.5 9H13.5C13.7773 9 14 8.77734 14 8.5V7.5C14 7.22266 13.7773 7 13.5 7H12.5ZM9.5 10C8.12109 10 7 11.1211 7 12.5C7 12.7188 7.04297 12.9219 7.09375 13.125C6.91406 13.0508 6.70703 13 6.5 13C5.67188 13 5 13.6719 5 14.5C5 15.3281 5.67188 16 6.5 16H14.5C15.3281 16 16 15.3281 16 14.5C16 13.6719 15.3281 13 14.5 13C14.5 11.8945 13.6055 11 12.5 11C12.1836 11 11.8906 11.0898 11.625 11.2188C11.1875 10.4922 10.4102 10 9.5 10ZM2.75781 11.0352C2.62891 11.0352 2.50391 11.082 2.40625 11.1797L1.69922 11.8867C1.5 12.0859 1.5 12.3984 1.69922 12.5938L2.40625 13.3008C2.60156 13.5 2.91406 13.5 3.11328 13.3008L3.82031 12.5938C4.01563 12.3984 4.01563 12.0859 3.82031 11.8867L3.11328 11.1797C3.01172 11.082 2.88672 11.0352 2.75781 11.0352V11.0352Z" fill="#2E3436"/>
</g>
<defs>
<clipPath id="clip0_231_1204">
<rect width="16" height="16" fill="white"/>
</clipPath>
</defs>
</svg>
